starter-code/images/backpack.svg

<?xml version="1.0" encoding="UTF-8" standalone="no"?>
<svg width="122px" height="122px" viewBox="0 0 122 122" version="1.1" xmlns="http://www.w3.org/2000/svg" xmlns:xlink="http://www.w3.org/1999/xlink">
  <title>backpack</title>
  <defs></defs>
  <g stroke="none" stroke-width="1" fill="none" fill-rule="evenodd">
    <g id="backpack" fill-rule="nonzero">
        <circle id="Oval" fill="#EF5759" cx="61" cy="61" r="61"></circle>
        <path d="M41.113,46.462 C41.06,46.357 40,44.2 40,41 C40,37.8 41.06,35.643 41.105,35.553 C41.835,34.263 43.39,33 45,33 L49,33 L49,32 C49,31.4477153 49.4477153,31 50,31 L54,31 C54.5522847,31 55,31.4477153 55,32 L55,33 L67,33 L67,32 C67,31.4477153 67.4477153,31 68,31 L72,31 C72.5522847,31 73,31.4477153 73,32 L73,33 L77,33 C78.528,33 80.245,34.135 80.91,35.583 C80.94,35.643 82,37.8 82,41 C82,44.2 80.94,46.357 80.894,46.447 C80.222,47.892 78.544,49 77,49 L76,49 C75.4477153,49 75,48.5522847 75,48 C75,47.4477153 75.4477153,47 76,47 L77,47 C77.676,47 78.715,46.392 79.094,45.578 C79.114,45.538 80,43.701 80,41 C80,38.268 79.114,36.465 79.105,36.447 C78.72,35.607 77.68,35 77,35 L72,35 C71.4477153,35 71,34.5522847 71,34 L71,33 L69,33 L69,34 C69,34.5522847 68.5522847,35 68,35 L54,35 C53.4477153,35 53,34.5522847 53,34 L53,33 L51,33 L51,34 C51,34.5522847 50.5522847,35 50,35 L45,35 C44.303,35 43.328,35.683 42.87,36.492 C42.873,36.492 42,38.32 42,41 C42,43.732 42.886,45.535 42.894,45.553 C43.294,46.317 44.28,47 45,47 L46,47 C46.5522847,47 47,47.4477153 47,48 C47,48.5522847 46.5522847,49 46,49 L45,49 C43.538,49 41.867,47.91 41.113,46.462 Z M88.08,51 L76,51 C75.4477153,51 75,51.4477153 75,52 C75,52.5522847 75.4477153,53 76,53 L79,53 L79,65 L78,65 C77.4477153,65 77,65.4477153 77,66 C77,66.5522847 77.4477153,67 78,67 L79,67 L79,86 C79,87.654 77.654,89 76,89 L46,89 C44.346,89 43,87.654 43,86 L43,67 L44,67 C44.5522847,67 45,66.5522847 45,66 C45,65.4477153 44.5522847,65 44,65 L43,65 L43,53 L46,53 C46.5522847,53 47,52.5522847 47,52 C47,51.4477153 46.5522847,51 46,51 L34,51 C32.346,51 31,52.346 31,54 L31,78 C31,79.654 32.346,81 34,81 L38,81 C38.5522847,81 39,80.5522847 39,80 C39,79.4477153 38.5522847,79 38,79 L34,79 C33.4477153,79 33,78.5522847 33,78 L33,54 C33,53.4477153 33.4477153,53 34,53 L37,53 L37,62 C37,62.5522847 37.4477153,63 38,63 C38.5522847,63 39,62.5522847 39,62 L39,53 L41,53 L41,86 C41,88.757 43.243,91 46,91 L76,91 C78.757,91 81,88.757 81,86 L81,53 L83,53 L83,62 C83,62.5522847 83.4477153,63 84,63 C84.5522847,63 85,62.5522847 85,62 L85,53 L88.08,53 C88.587,53 89,53.45 89,54 L89,78 C89,78.55 88.587,79 88.08,79 L84,79 C83.4477153,79 83,79.4477153 83,80 C83,80.5522847 83.4477153,81 84,81 L88.08,81 C89.69,81 91,79.654 91,78 L91,54 C91,52.346 89.69,51 88.08,51 Z M49,82 L49,69 L48,69 C47.4477153,69 47,68.5522847 47,68 L47,64 C47,63.4477153 47.4477153,63 48,63 L49,63 L49,38 C49,37.4477153 49.4477153,37 50,37 C50.5522847,37 51,37.4477153 51,38 L51,63 L53,63 L53,38 C53,37.4477153 53.4477153,37 54,37 C54.5522847,37 55,37.4477153 55,38 L55,63 L56,63 C56.5522847,63 57,63.4477153 57,64 L57,68 C57,68.5522847 56.5522847,69 56,69 L55,69 L55,82 C55,82.265 54.894,82.52 54.707,82.707 L52.707,84.707 C52.5198649,84.8952092 52.2654096,85.0010349 52,85.0010349 C51.7345904,85.0010349 51.4801351,84.8952092 51.293,84.707 L49.293,82.707 C49.1054506,82.5195073 49.0000566,82.2651948 49,82 L49,82 Z M53,69 L51,69 L51,81.586 L52,82.586 L53,81.586 L53,69 Z M49,67 L55,67 L55,65 L49,65 L49,67 Z M67,82 L67,69 L66,69 C65.4477153,69 65,68.5522847 65,68 L65,64 C65,63.4477153 65.4477153,63 66,63 L67,63 L67,38 C67,37.4477153 67.4477153,37 68,37 C68.5522847,37 69,37.4477153 69,38 L69,63 L71,63 L71,38 C71,37.4477153 71.4477153,37 72,37 C72.5522847,37 73,37.4477153 73,38 L73,63 L74,63 C74.5522847,63 75,63.4477153 75,64 L75,68 C75,68.5522847 74.5522847,69 74,69 L73,69 L73,82 C73,82.265 72.894,82.52 72.707,82.707 L70.707,84.707 C70.5198649,84.8952092 70.2654096,85.0010349 70,85.0010349 C69.7345904,85.0010349 69.4801351,84.8952092 69.293,84.707 L67.293,82.707 C67.1054506,82.5195073 67.0000566,82.2651948 67,82 Z M71,69 L69,69 L69,81.586 L70,82.586 L71,81.586 L71,69 Z M67,67 L73,67 L73,65 L67,65 L67,67 Z M60,65 C59.4477153,65 59,65.4477153 59,66 C59,66.5522847 59.4477153,67 60,67 L62,67 C62.5522847,67 63,66.5522847 63,66 C63,65.4477153 62.5522847,65 62,65 L60,65 Z M58,49 L64,49 C64.5522847,49 65,48.5522847 65,48 C65,47.4477153 64.5522847,47 64,47 L58,47 C57.4477153,47 57,47.4477153 57,48 C57,48.5522847 57.4477153,49 58,49 Z M65,52 C65,51.4477153 64.5522847,51 64,51 L58,51 C57.4477153,51 57,51.4477153 57,52 C57,52.5522847 57.4477153,53 58,53 L64,53 C64.5522847,53 65,52.5522847 65,52 Z" id="Shape" fill="#FFFFFF"></path>
    </g>
  </g>
</svg>

<svg width="122" height="122" viewBox="0 0 122 122" xmlns="http://www.w3.org/2000/svg">
    <g fill="none" fill-rule="evenodd">
        <circle cx="61" cy="61" r="61" fill="#EF5759"/>
        <path d="M41.113 46.462C41.06 46.357 40 44.2 40 41c0-3.2 1.06-5.357 1.105-5.447C41.835 34.263 43.39 33 45 33h4v-1a1 1 0 0 1 1-1h4a1 1 0 0 1 1 1v1h12v-1a1 1 0 0 1 1-1h4a1 1 0 0 1 1 1v1h4c1.528 0 3.245 1.135 3.91 2.583C80.94 35.643 82 37.8 82 41c0 3.2-1.06 5.357-1.106 5.447C80.222 47.892 78.544 49 77 49h-1a1 1 0 0 1 0-2h1c.676 0 1.715-.608 2.094-1.422.02-.04.906-1.877.906-4.578 0-2.732-.886-4.535-.895-4.553C78.72 35.607 77.68 35 77 35h-5a1 1 0 0 1-1-1v-1h-2v1a1 1 0 0 1-1 1H54a1 1 0 0 1-1-1v-1h-2v1a1 1 0 0 1-1 1h-5c-.697 0-1.672.683-2.13 1.492.003 0-.87 1.828-.87 4.508 0 2.732.886 4.535.894 4.553C43.294 46.317 44.28 47 45 47h1a1 1 0 0 1 0 2h-1c-1.462 0-3.133-1.09-3.887-2.538zM88.08 51H76a1 1 0 0 0 0 2h3v12h-1a1 1 0 0 0 0 2h1v19c0 1.654-1.346 3-3 3H46c-1.654 0-3-1.346-3-3V67h1a1 1 0 0 0 0-2h-1V53h3a1 1 0 0 0 0-2H34c-1.654 0-3 1.346-3 3v24c0 1.654 1.346 3 3 3h4a1 1 0 0 0 0-2h-4a1 1 0 0 1-1-1V54a1 1 0 0 1 1-1h3v9a1 1 0 0 0 2 0v-9h2v33c0 2.757 2.243 5 5 5h30c2.757 0 5-2.243 5-5V53h2v9a1 1 0 0 0 2 0v-9h3.08c.507 0 .92.45.92 1v24c0 .55-.413 1-.92 1H84a1 1 0 0 0 0 2h4.08c1.61 0 2.92-1.346 2.92-3V54c0-1.654-1.31-3-2.92-3zM49 82V69h-1a1 1 0 0 1-1-1v-4a1 1 0 0 1 1-1h1V38a1 1 0 0 1 2 0v25h2V38a1 1 0 0 1 2 0v25h1a1 1 0 0 1 1 1v4a1 1 0 0 1-1 1h-1v13c0 .265-.106.52-.293.707l-2 2a.997.997 0 0 1-1.414 0l-2-2A1 1 0 0 1 49 82zm4-13h-2v12.586l1 1 1-1V69zm-4-2h6v-2h-6v2zm18 15V69h-1a1 1 0 0 1-1-1v-4a1 1 0 0 1 1-1h1V38a1 1 0 0 1 2 0v25h2V38a1 1 0 0 1 2 0v25h1a1 1 0 0 1 1 1v4a1 1 0 0 1-1 1h-1v13c0 .265-.106.52-.293.707l-2 2a.997.997 0 0 1-1.414 0l-2-2A1 1 0 0 1 67 82zm4-13h-2v12.586l1 1 1-1V69zm-4-2h6v-2h-6v2zm-7-2a1 1 0 0 0 0 2h2a1 1 0 0 0 0-2h-2zm-2-16h6a1 1 0 0 0 0-2h-6a1 1 0 0 0 0 2zm7 3a1 1 0 0 0-1-1h-6a1 1 0 0 0 0 2h6a1 1 0 0 0 1-1z" fill="#FFF"/>
    </g>
</svg>
